src/icons/refresh.svg

<?xml version="1.0" encoding="UTF-8"?>
<svg version="1.1" viewBox="0 0 16 16" xmlns="http://www.w3.org/2000/svg">
<g fill="none" fill-rule="evenodd">
<g transform="translate(-424 -340)" fill="#000">
<g transform="translate(424 340)">
<path d="m13.6 2.4c-1.4-1.5-3.4-2.4-5.6-2.4-4.4 0-8 3.6-8 8s3.6 8 8 8c3.7 0 6.8-2.6 7.7-6h-2.1c-0.8 2.3-3 4-5.6 4-3.3 0-6-2.7-6-6s2.7-6 6-6c1.7 0 3.1 0.7 4.2 1.8l-3.2 3.2h7v-7l-2.4 2.4z"/>
</g>
</g>
</g>
</svg>

<?xml version="1.0" ?><svg height="16px" version="1.1" viewBox="0 0 16 16" width="16px" xmlns="http://www.w3.org/2000/svg" xmlns:sketch="http://www.bohemiancoding.com/sketch/ns" xmlns:xlink="http://www.w3.org/1999/xlink"><title/><desc/><defs/><g fill="none" fill-rule="evenodd" id="Page-1" stroke="none" stroke-width="1"><g fill="#000000" id="Core" transform="translate(-424.000000, -340.000000)"><g id="refresh" transform="translate(424.000000, 340.000000)"><path d="M13.6,2.4 C12.2,0.9 10.2,0 8,0 C3.6,0 0,3.6 0,8 C0,12.4 3.6,16 8,16 C11.7,16 14.8,13.4 15.7,10 L13.6,10 C12.8,12.3 10.6,14 8,14 C4.7,14 2,11.3 2,8 C2,4.7 4.7,2 8,2 C9.7,2 11.1,2.7 12.2,3.8 L9,7 L16,7 L16,0 L13.6,2.4 L13.6,2.4 Z" id="Shape"/></g></g></g></svg>
